brandFactory_export/1.Light/Velocidad RPM_1LIght.svg

<?xml version="1.0" encoding="UTF-8"?>
<svg width="24px" height="24px" viewBox="0 0 24 24" version="1.1" xmlns="http://www.w3.org/2000/svg" xmlns:xlink="http://www.w3.org/1999/xlink">
    <title>1.Light/Velocidad RPM_1LIght</title>
    <g id="Symbols" stroke="none" stroke-width="1" fill="none" fill-rule="evenodd">
        <g id="1.Light/Velocidad-RPM_1LIght" fill="#5CB615" fill-rule="nonzero">
            <path d="M22.1310924,19.7579832 C22.4672269,18.5579832 22.6386555,17.1865546 22.6386555,15.6773109 C22.6386555,8.57478992 18.994958,4.97478992 11.8117647,4.97478992 C4.62857143,4.97478992 0.988235294,8.57478992 0.988235294,15.6773109 C0.988235294,17.1865546 1.15966387,18.5579832 1.49243697,19.7579832 L22.1310924,19.7579832 Z M11.8084034,4 C19.5361345,4 23.6235294,8.03697479 23.6235294,15.6773109 C23.6235294,17.4084034 23.4084034,18.9781513 22.9882353,20.3361345 C22.9815126,20.3596639 22.9714286,20.3865546 22.9613445,20.4067227 L22.9344538,20.4605042 C22.8504202,20.6285714 22.6789916,20.7327731 22.4907563,20.7327731 L1.12268908,20.7327731 C0.907563025,20.7327731 0.719327731,20.594958 0.65210084,20.389916 C0.218487395,19.0184874 0,17.4319328 0,15.6773109 C0,8.04033613 4.08403361,4 11.8084034,4 Z M11.8117647,17.9865546 C12.312605,17.9865546 12.712605,17.6302521 12.8134454,17.1630252 L11.9966387,17.3983193 C11.7378151,17.4756303 11.4655462,17.3277311 11.3848739,17.0689076 C11.3109244,16.810084 11.4588235,16.5411765 11.7176471,16.4638655 L11.7210084,16.4638655 L12.5512605,16.2218487 C12.3563025,16.0268908 12.0907563,15.9159664 11.8117647,15.9193277 C11.2336134,15.9193277 10.7663866,16.3831933 10.7663866,16.9512605 C10.7663866,17.5226891 11.2336134,17.9865546 11.8117647,17.9865546 Z M11.8117647,14.9478992 C12.5243697,14.9478992 13.1865546,15.3243697 13.5529412,15.9394958 L20.7798319,13.8420168 C21.0386555,13.7647059 21.3109244,13.9092437 21.3882353,14.1680672 L21.3882353,14.1714286 C21.4655462,14.4268908 21.3176471,14.6991597 21.0588235,14.7731092 L21.0521008,14.7731092 L13.8285714,16.8672269 C13.8285714,16.8941176 13.8386555,16.9210084 13.8386555,16.9512605 C13.8386555,18.0571429 12.9277311,18.9579832 11.8084034,18.9579832 C10.6890756,18.9579832 9.78151261,18.0605042 9.78151261,16.9546218 C9.78151261,15.8487395 10.692437,14.9478992 11.8117647,14.9478992 L11.8117647,14.9478992 Z M11.794958,8.04033613 C11.5226891,8.04033613 11.3042017,7.82521008 11.3008403,7.55294118 L11.3008403,6.56470588 C11.3008403,6.29579832 11.5226891,6.07731092 11.7915966,6.07731092 C12.0638655,6.07731092 12.2857143,6.29579832 12.2857143,6.56470588 L12.2857143,7.55294118 C12.2857143,7.82521008 12.0638655,8.04369748 11.794958,8.04033613 Z M5.55630252,8.66890756 L6.26554622,9.36806723 C6.45714286,9.55630252 6.45714286,9.86218487 6.27226891,10.0504202 L6.26554622,10.0571429 C6.07058824,10.2453782 5.76134454,10.2453782 5.5697479,10.0571429 L4.8605042,9.35798319 C4.66890756,9.1697479 4.66890756,8.86386555 4.85378151,8.67563025 L4.8605042,8.66890756 C5.05210084,8.48067227 5.36134454,8.48067227 5.55630252,8.66890756 Z M3.42521008,14.389916 C3.69747899,14.389916 3.91596639,14.6084034 3.91596639,14.8773109 C3.91596639,15.1462185 3.69411765,15.3647059 3.42521008,15.3647059 L2.42352941,15.3647059 C2.15462185,15.3647059 1.93277311,15.1462185 1.93277311,14.8773109 C1.93277311,14.6084034 2.15462185,14.389916 2.42352941,14.389916 L3.42521008,14.389916 L3.42521008,14.389916 Z M17.7579832,10.2453782 C17.6268908,10.2453782 17.502521,10.194958 17.4084034,10.1042017 C17.2168067,9.91596639 17.2168067,9.61008403 17.405042,9.41848739 L17.4084034,9.41512605 L18.1176471,8.71596639 C18.3092437,8.52436975 18.6218487,8.52436975 18.8134454,8.71596639 C19.005042,8.90084034 19.0084034,9.20672269 18.8201681,9.39831933 L18.8134454,9.40504202 L18.107563,10.1042017 C18.0134454,10.1915966 17.8857143,10.2453782 17.7579832,10.2453782 L17.7579832,10.2453782 Z" id="Velocidad-RPM_1LIght"></path>
        </g>
    </g>
</svg>

<svg width="24" height="24" viewBox="0 0 24 24" xmlns="http://www.w3.org/2000/svg"><path d="M22.131 19.758c.336-1.2.508-2.571.508-4.08 0-7.103-3.644-10.703-10.827-10.703S.988 8.575.988 15.677c0 1.51.172 2.881.504 4.081h20.64zM11.808 4c7.728 0 11.816 4.037 11.816 11.677 0 1.731-.216 3.301-.636 4.66a.44.44 0 01-.027.07l-.027.054a.494.494 0 01-.443.272H1.123a.494.494 0 01-.47-.343C.217 19.018 0 17.432 0 15.677 0 8.04 4.084 4 11.808 4zm.004 13.987c.5 0 .9-.357 1.001-.824l-.816.235a.494.494 0 01-.612-.33.49.49 0 01.333-.604h.003l.83-.242a1.028 1.028 0 00-.74-.303 1.04 1.04 0 00-1.045 1.032 1.04 1.04 0 001.046 1.036zm0-3.04c.712 0 1.375.377 1.74.992l7.228-2.097a.487.487 0 01.608.326v.003a.482.482 0 01-.33.602h-.006l-7.223 2.094c0 .027.01.054.01.084 0 1.106-.911 2.007-2.03 2.007a2.016 2.016 0 01-2.027-2.003c0-1.106.91-2.007 2.03-2.007zm-.017-6.907a.491.491 0 01-.494-.487v-.988a.49.49 0 01.49-.488c.273 0 .495.219.495.488v.988c0 .272-.222.49-.491.487zm-6.239.629l.71.7a.483.483 0 01.006.681l-.006.007a.5.5 0 01-.696 0l-.71-.699a.483.483 0 01-.006-.682l.007-.007a.5.5 0 01.695 0zm-2.13 5.72c.271 0 .49.22.49.488a.49.49 0 01-.49.488H2.423a.49.49 0 01-.491-.488.49.49 0 01.49-.487h1.002zm14.332-4.144a.484.484 0 01-.353-.827l.003-.003.71-.699a.493.493 0 01.695 0 .48.48 0 01.007.682l-.007.007-.705.7a.524.524 0 01-.35.14z" fill="#5CB615" fill-rule="nonzero"/></svg>
